!!!SOCIAL_FUNCTION:	songs connected with the treatment of the sick
!!!PDT:	1932
!!!OTL: No_74_Healing_Song_(a).krn
!!!REG: Wisconsin
!!!LANG: Non-Tone
!!!LING_GROUP: Algonquin
**kern
*staff1
=1-
*clefF4
*k[f#]
*M2/4
8d\L
8d\J
8.d\L
16B\Jk
=2
8.A\L
16G\Jk
8G\
8r
=3
8A\L
8A\J
8.A\L
16B\Jk
=4||
*M3/4
8.A\L
16A\Jk
2A\
=5
2A\
8.r
16A\
=6||
*M2/4
8A\L
16A\L
16A\JJ
4A\
=7
(4G\
4E\)
=8
12A\L
12G\
12G\J
4G\
=9
4.G\
8r
=10
8.G\L
16A\Jk
8.G\L
16E\Jk
=11
8.E\L
16D\Jk
8D\
16r
16E\
=12
8E\L
16E\L
16E\JJ
4E\
=13
4D\
4D\
=14
4D\
8D\
8r
==
*-
